X:0995
T:A Do.
N:Harris Dance
M:C
L:1/8
Q:1/2=112
I: :: ::
Z:Jack Campin * www.campin.me.uk * 2009
K:A Minor
c2ge g2a2|g2eg geed|c2ge g2a2|gede AAA2:|
e2dc A2GG|e2dc AAAG|e2dc A2GG|cdcA GGG2:|

